src/assets/images/routing-pancakeswap.svg

<svg width="103" height="16" viewBox="0 0 103 16" fill="none" xmlns="http://www.w3.org/2000/svg">
<g opacity="0.6" clip-path="url(#clip0_228_8274)">
<path d="M19.8017 12.3097C19.5629 12.3097 19.3941 12.26 19.2952 12.161C19.2047 12.0619 19.1594 11.9049 19.1594 11.6902V4.51664C19.1594 4.30188 19.2087 4.14495 19.3076 4.04583C19.4064 3.93846 19.5711 3.88477 19.8017 3.88477H22.8282C23.9811 3.88477 24.8293 4.12843 25.3729 4.61575C25.9164 5.10307 26.1882 5.82992 26.1882 6.79631C26.1882 7.75443 25.9164 8.47714 25.3729 8.96445C24.8376 9.44357 23.9894 9.68309 22.8282 9.68309H21.6546V11.6902C21.6546 11.9049 21.6053 12.0619 21.5064 12.161C21.4076 12.26 21.2388 12.3097 20.9999 12.3097H19.8017ZM22.6306 7.88658C22.9682 7.88658 23.2276 7.79573 23.4088 7.61401C23.5982 7.4323 23.6929 7.15973 23.6929 6.79631C23.6929 6.42462 23.5982 6.14792 23.4088 5.9662C23.2276 5.7845 22.9682 5.69363 22.6306 5.69363H21.6546V7.88658H22.6306Z" fill="white"/>
<path d="M29.1055 12.4954C28.3314 12.4954 27.7096 12.2476 27.2402 11.7521C26.779 11.2482 26.5485 10.542 26.5485 9.63341C26.5485 8.93962 26.7049 8.3325 27.0178 7.81217C27.339 7.29182 27.7879 6.89123 28.3643 6.6104C28.9491 6.3213 29.6202 6.17676 30.3778 6.17676C31.0038 6.17676 31.5555 6.24696 32.0332 6.38738C32.519 6.51954 32.9637 6.71364 33.3673 6.96969V11.9255C33.3673 12.0825 33.3385 12.1857 33.2808 12.2352C33.2231 12.2848 33.1079 12.3096 32.9349 12.3096H31.6749C31.5843 12.3096 31.5143 12.2972 31.465 12.2724C31.4155 12.2394 31.3744 12.1898 31.3414 12.1237L31.1808 11.7521C30.942 12.0081 30.6538 12.194 30.3161 12.3096C29.9867 12.4335 29.5832 12.4954 29.1055 12.4954ZM30.032 10.8104C30.3532 10.8104 30.6043 10.7319 30.7855 10.5751C30.9667 10.4181 31.0572 10.1951 31.0572 9.90597V7.97324C30.9008 7.8989 30.7032 7.86173 30.4643 7.86173C30.0278 7.86173 29.6778 8.01454 29.4143 8.32012C29.159 8.62573 29.0314 9.05524 29.0314 9.60864C29.0314 10.4099 29.3649 10.8104 30.032 10.8104Z" fill="white"/>
<path d="M35.0864 12.3096C34.8475 12.3096 34.6787 12.26 34.5799 12.1609C34.4811 12.0618 34.4317 11.9048 34.4317 11.6901V6.74668C34.4317 6.59801 34.4564 6.49889 34.5058 6.44933C34.5634 6.39151 34.6787 6.36261 34.8517 6.36261H36.1241C36.2228 6.36261 36.297 6.37912 36.3464 6.41216C36.404 6.43694 36.4369 6.4865 36.4452 6.56084L36.5069 6.93252C36.7376 6.70125 37.0382 6.51954 37.4087 6.38738C37.7876 6.24696 38.2075 6.17676 38.6687 6.17676C39.3358 6.17676 39.8752 6.36673 40.2869 6.74668C40.6987 7.11836 40.9046 7.67176 40.9046 8.40688V11.6901C40.9046 11.9048 40.8552 12.0618 40.7564 12.1609C40.6658 12.26 40.501 12.3096 40.2622 12.3096H39.064C38.8252 12.3096 38.6523 12.26 38.5452 12.1609C38.4463 12.0618 38.397 11.9048 38.397 11.6901V8.56792C38.397 8.32012 38.3434 8.14259 38.2364 8.03519C38.1293 7.92781 37.9605 7.87412 37.7299 7.87412C37.4828 7.87412 37.2852 7.9402 37.1369 8.07232C36.997 8.2045 36.927 8.38621 36.927 8.61753V11.6901C36.927 11.9048 36.8775 12.0618 36.7788 12.1609C36.6882 12.26 36.5234 12.3096 36.2846 12.3096H35.0864Z" fill="white"/>
<path d="M45.271 12.4954C44.118 12.4954 43.2286 12.2269 42.6027 11.6901C41.9768 11.1532 41.6639 10.3727 41.6639 9.34846C41.6639 8.72077 41.808 8.16736 42.0962 7.68828C42.3845 7.20922 42.8004 6.83753 43.3439 6.57323C43.8957 6.30891 44.5463 6.17676 45.2957 6.17676C45.8639 6.17676 46.3416 6.23045 46.7286 6.33783C47.1239 6.4452 47.4739 6.61039 47.7786 6.83341C47.8692 6.89123 47.9145 6.96556 47.9145 7.05642C47.9145 7.12249 47.8815 7.20922 47.8156 7.31659L47.3092 8.19622C47.2515 8.31192 47.1815 8.36973 47.0992 8.36973C47.0497 8.36973 46.9715 8.33669 46.8645 8.27059C46.6421 8.13021 46.4322 8.02693 46.2345 7.96085C46.045 7.89477 45.8062 7.86173 45.518 7.86173C45.1062 7.86173 44.7727 7.99389 44.5174 8.25821C44.2704 8.52249 44.1468 8.88591 44.1468 9.34846C44.1468 9.8193 44.2744 10.1827 44.5298 10.4387C44.7851 10.6865 45.1351 10.8104 45.5798 10.8104C45.8433 10.8104 46.0822 10.7733 46.2963 10.6989C46.5104 10.6246 46.7286 10.5214 46.951 10.3892C47.0663 10.3231 47.1486 10.2901 47.198 10.2901C47.2721 10.2901 47.338 10.3479 47.3957 10.4636L47.9515 11.4175C47.9927 11.5001 48.0133 11.5662 48.0133 11.6157C48.0133 11.6901 47.9639 11.7603 47.8651 11.8264C47.5192 12.0494 47.1403 12.2146 46.7286 12.322C46.3251 12.4376 45.8392 12.4954 45.271 12.4954Z" fill="white"/>
<path d="M51.1453 12.4954C50.3712 12.4954 49.7494 12.2476 49.2801 11.7521C48.8189 11.2482 48.5883 10.542 48.5883 9.63341C48.5883 8.93962 48.7447 8.3325 49.0577 7.81217C49.3788 7.29182 49.8277 6.89123 50.4041 6.6104C50.9889 6.3213 51.6601 6.17676 52.4177 6.17676C53.0436 6.17676 53.5953 6.24696 54.073 6.38738C54.5588 6.51954 55.0036 6.71364 55.4071 6.96969V11.9255C55.4071 12.0825 55.3783 12.1857 55.3206 12.2352C55.263 12.2848 55.1477 12.3096 54.9747 12.3096H53.7148C53.6242 12.3096 53.5541 12.2972 53.5048 12.2724C53.4554 12.2394 53.4142 12.1898 53.3812 12.1237L53.2207 11.7521C52.9818 12.0081 52.6936 12.194 52.3559 12.3096C52.0265 12.4335 51.623 12.4954 51.1453 12.4954ZM52.0718 10.8104C52.393 10.8104 52.6442 10.7319 52.8254 10.5751C53.0065 10.4181 53.0971 10.1951 53.0971 9.90597V7.97324C52.9406 7.8989 52.743 7.86173 52.5041 7.86173C52.0677 7.86173 51.7177 8.01454 51.4541 8.32012C51.1989 8.62573 51.0712 9.05524 51.0712 9.60864C51.0712 10.4099 51.4048 10.8104 52.0718 10.8104Z" fill="white"/>
<path d="M63.1668 11.8388C63.2244 11.9049 63.2533 11.9793 63.2533 12.0619C63.2533 12.1362 63.2286 12.1981 63.1791 12.2477C63.1297 12.289 63.0638 12.3097 62.9815 12.3097H61.0668C60.9515 12.3097 60.865 12.3014 60.8074 12.2849C60.758 12.26 60.7044 12.2146 60.6468 12.1486L58.9668 9.85651V11.6902C58.9668 11.9049 58.9174 12.0619 58.8186 12.161C58.7197 12.26 58.5509 12.3097 58.3121 12.3097H57.1139C56.875 12.3097 56.7062 12.26 56.6074 12.161C56.5168 12.0619 56.4715 11.9049 56.4715 11.6902V4.51664C56.4715 4.30188 56.5209 4.14495 56.6197 4.04583C56.7186 3.93846 56.8833 3.88477 57.1139 3.88477H58.3121C58.5509 3.88477 58.7197 3.93846 58.8186 4.04583C58.9174 4.14495 58.9668 4.30188 58.9668 4.51664V8.66713L60.5974 6.53613C60.6468 6.47004 60.7003 6.42462 60.758 6.39984C60.8156 6.37506 60.9021 6.36268 61.0174 6.36268H62.9321C63.0145 6.36268 63.0762 6.38745 63.1174 6.43701C63.1668 6.47831 63.1915 6.53613 63.1915 6.61047C63.1915 6.69306 63.1627 6.76739 63.105 6.83348L60.9927 9.26186L63.1668 11.8388Z" fill="white"/>
<path d="M67.1778 12.4954C66.4861 12.4954 65.8684 12.3798 65.3249 12.1485C64.7896 11.9172 64.3655 11.5703 64.0525 11.1078C63.7396 10.6453 63.5831 10.0795 63.5831 9.41045C63.5831 8.36145 63.8796 7.56026 64.4726 7.00686C65.0655 6.45346 65.9178 6.17676 67.0296 6.17676C68.1167 6.17676 68.9402 6.44933 69.5002 6.99447C70.0685 7.53135 70.3526 8.27888 70.3526 9.23695C70.3526 9.64997 70.1714 9.85644 69.809 9.85644H65.9302C65.9302 10.2116 66.0619 10.4842 66.3255 10.6741C66.5972 10.8641 67.0049 10.9591 67.5484 10.9591C67.886 10.9591 68.1661 10.9302 68.3884 10.8724C68.619 10.8063 68.8496 10.7114 69.0802 10.5875C69.179 10.5461 69.2449 10.5255 69.2778 10.5255C69.3519 10.5255 69.4137 10.5751 69.4631 10.6741L69.8831 11.4671C69.9243 11.5497 69.9449 11.6116 69.9449 11.6529C69.9449 11.7272 69.8955 11.7975 69.7966 11.8635C69.459 12.0866 69.0761 12.2476 68.6479 12.3467C68.2196 12.4459 67.7296 12.4954 67.1778 12.4954ZM68.129 8.62991C68.129 8.31602 68.0384 8.07232 67.8573 7.8989C67.6761 7.72545 67.4043 7.63872 67.0419 7.63872C66.6796 7.63872 66.4037 7.72958 66.2143 7.91129C66.0249 8.08479 65.9302 8.3243 65.9302 8.62991H68.129Z" fill="white"/>
<path d="M74.5865 12.4948C73.8947 12.4948 73.24 12.4246 72.6224 12.2842C72.0048 12.1355 71.5065 11.929 71.1277 11.6647C70.9877 11.5739 70.9177 11.4788 70.9177 11.3798C70.9177 11.3137 70.9424 11.2435 70.9918 11.1691L71.5971 10.2028C71.663 10.1036 71.7288 10.0541 71.7947 10.0541C71.8359 10.0541 71.9059 10.083 72.0048 10.1408C72.3095 10.3143 72.6553 10.4547 73.0424 10.562C73.4294 10.6694 73.8124 10.7231 74.1912 10.7231C74.5783 10.7231 74.8624 10.6653 75.0436 10.5496C75.233 10.434 75.3277 10.2482 75.3277 9.99211C75.3277 9.74431 75.2247 9.55022 75.0189 9.40984C74.8212 9.26938 74.4465 9.09185 73.8947 8.8771C73.063 8.56321 72.4124 8.21217 71.943 7.82395C71.4818 7.42749 71.2512 6.89061 71.2512 6.21331C71.2512 5.39561 71.5436 4.772 72.1283 4.3425C72.713 3.913 73.4912 3.69824 74.463 3.69824C75.1382 3.69824 75.7148 3.76019 76.1924 3.88408C76.6783 3.99972 77.09 4.18143 77.4277 4.42922C77.5677 4.5366 77.6377 4.63571 77.6377 4.72658C77.6377 4.78439 77.613 4.85047 77.5635 4.92481L76.9583 5.89119C76.8841 5.9903 76.8182 6.03986 76.7606 6.03986C76.7195 6.03986 76.6494 6.01095 76.5507 5.95313C76.073 5.63927 75.5047 5.48233 74.846 5.48233C74.4918 5.48233 74.22 5.54015 74.0306 5.65579C73.8412 5.77142 73.7465 5.9614 73.7465 6.2257C73.7465 6.40742 73.796 6.55609 73.8947 6.67173C73.9936 6.78736 74.1254 6.89061 74.29 6.98147C74.463 7.06406 74.7265 7.17144 75.0806 7.30359L75.3153 7.39032C75.9247 7.62985 76.4024 7.86112 76.7483 8.08417C77.1024 8.29885 77.37 8.56731 77.5512 8.88948C77.7324 9.20329 77.8229 9.59975 77.8229 10.0789C77.8229 10.814 77.5471 11.4004 76.9953 11.8381C76.4518 12.2759 75.6489 12.4948 74.5865 12.4948Z" fill="white"/>
<path d="M80.4476 12.3093C80.3242 12.3093 80.2296 12.2886 80.1635 12.2473C80.0976 12.2061 80.0482 12.1234 80.0152 11.9995L78.4217 6.64726C78.4053 6.59771 78.397 6.56054 78.397 6.53576C78.397 6.42012 78.4794 6.3623 78.6441 6.3623H80.2745C80.3819 6.3623 80.4597 6.38295 80.5094 6.42425C80.5591 6.45728 80.5919 6.5151 80.608 6.5977L81.2749 9.41015L82.1151 7.14284C82.1568 7.04373 82.1976 6.97765 82.2385 6.94461C82.2882 6.90331 82.3708 6.88266 82.4862 6.88266H83.2638C83.3793 6.88266 83.4578 6.90331 83.4987 6.94461C83.5484 6.97765 83.5933 7.04373 83.635 7.14284L84.4623 9.41015L85.1421 6.5977C85.1661 6.5151 85.199 6.45728 85.2407 6.42425C85.2816 6.38295 85.3561 6.3623 85.4627 6.3623H87.1061C87.2705 6.3623 87.353 6.42012 87.353 6.53576C87.353 6.56054 87.345 6.59771 87.3282 6.64726L85.7225 11.9995C85.6896 12.1234 85.6399 12.2061 85.5742 12.2473C85.5165 12.2886 85.4259 12.3093 85.3024 12.3093H84.0919C83.9765 12.3093 83.8899 12.2886 83.8322 12.2473C83.7745 12.1978 83.7256 12.1152 83.6839 11.9995L82.8686 9.75701L82.0533 11.9995C82.0205 12.1152 81.9708 12.1978 81.905 12.2473C81.8473 12.2886 81.7615 12.3093 81.6461 12.3093H80.4476Z" fill="white"/>
<path d="M90.4843 12.4954C89.7099 12.4954 89.0886 12.2476 88.6188 11.7521C88.1579 11.2482 87.927 10.542 87.927 9.63341C87.927 8.93962 88.0833 8.3325 88.3968 7.81217C88.7174 7.29182 89.1663 6.89123 89.7427 6.6104C90.3279 6.3213 90.9989 6.17676 91.7565 6.17676C92.3826 6.17676 92.9341 6.24696 93.4119 6.38738C93.8977 6.51954 94.3426 6.71364 94.7458 6.96969V11.9255C94.7458 12.0825 94.717 12.1857 94.6592 12.2352C94.6015 12.2848 94.4869 12.3096 94.3137 12.3096H93.0535C92.963 12.3096 92.8932 12.2972 92.8435 12.2724C92.7938 12.2394 92.7529 12.1898 92.72 12.1237L92.5597 11.7521C92.3208 12.0081 92.0322 12.194 91.6947 12.3096C91.3653 12.4335 90.962 12.4954 90.4843 12.4954ZM91.411 10.8104C91.7316 10.8104 91.9833 10.7319 92.1645 10.5751C92.3457 10.4181 92.4363 10.1951 92.4363 9.90597V7.97324C92.2791 7.8989 92.0819 7.86173 91.8431 7.86173C91.4062 7.86173 91.0566 8.01454 90.7929 8.32012C90.538 8.62573 90.4097 9.05524 90.4097 9.60864C90.4097 10.4099 90.744 10.8104 91.411 10.8104Z" fill="white"/>
<path d="M96.4525 14.8123C96.2136 14.8123 96.0452 14.7627 95.9458 14.6636C95.8553 14.5645 95.8104 14.4075 95.8104 14.1928V7.09358C96.1807 6.82928 96.6465 6.61039 97.206 6.43694C97.7664 6.26349 98.3508 6.17676 98.96 6.17676C101.448 6.17676 102.691 7.234 102.691 9.34846C102.691 10.3066 102.427 11.0706 101.9 11.6406C101.373 12.2105 100.628 12.4954 99.6647 12.4954C99.3929 12.4954 99.1292 12.4624 98.8735 12.3963C98.6265 12.3303 98.4205 12.2394 98.2562 12.1237V14.1928C98.2562 14.4075 98.2065 14.5645 98.1079 14.6636C98.0093 14.7627 97.8401 14.8123 97.6012 14.8123H96.4525ZM99.1332 10.8228C99.4875 10.8228 99.7513 10.6907 99.9236 10.4263C100.105 10.1538 100.195 9.79035 100.195 9.33608C100.195 8.79924 100.089 8.42336 99.8747 8.2086C99.6687 7.98563 99.3472 7.87412 98.9111 7.87412C98.6306 7.87412 98.4085 7.91129 98.2442 7.98563V9.95558C98.2442 10.2364 98.3219 10.4512 98.4782 10.5998C98.6354 10.7485 98.8534 10.8228 99.1332 10.8228Z" fill="white"/>
<path fill-rule="evenodd" clip-rule="evenodd" d="M7.82055 15.9684C5.48032 15.9666 3.59523 15.4034 2.27809 14.3918C0.945151 13.368 0.238037 11.9152 0.238037 10.2712C0.238037 8.6872 0.943604 7.54501 1.74195 6.77294C2.3676 6.1679 3.05802 5.78039 3.53877 5.55749C3.43005 5.22287 3.29442 4.78479 3.17306 4.33232C3.01069 3.72685 2.85139 3.01647 2.85139 2.49591C2.85139 1.87976 2.98533 1.26097 3.34647 0.780146C3.72803 0.272142 4.30245 0 4.99349 0C5.53357 0 5.99208 0.200927 6.35105 0.547547C6.69418 0.878866 6.92256 1.31887 7.08023 1.77754C7.35731 2.58352 7.46519 3.59609 7.49544 4.60659H8.15736C8.18767 3.59609 8.29549 2.58352 8.57262 1.77754C8.7303 1.31887 8.95861 0.878866 9.30179 0.547547C9.66077 0.200927 10.1192 0 10.6593 0C11.3504 0 11.9248 0.272142 12.3064 0.780146C12.6675 1.26097 12.8015 1.87976 12.8015 2.49591C12.8015 3.01647 12.6421 3.72685 12.4798 4.33232C12.3584 4.78479 12.2228 5.22287 12.1141 5.55749C12.5948 5.78039 13.2853 6.1679 13.9109 6.77294C14.7092 7.54501 15.4147 8.6872 15.4147 10.2712C15.4147 11.9152 14.7077 13.368 13.3747 14.3918C12.0576 15.4034 10.1725 15.9666 7.83226 15.9684H7.82055Z" fill="white"/>
<path d="M4.9935 0.585938C3.98137 0.585938 3.51546 1.35099 3.51546 2.40904C3.51546 3.25004 4.0568 4.93433 4.27891 5.59C4.32887 5.73747 4.25038 5.89904 4.10721 5.95623C3.29602 6.28031 0.9021 7.46688 0.9021 10.1844C0.9021 13.0469 3.33486 15.2053 7.82107 15.2088C7.82286 15.2088 7.82464 15.2087 7.82643 15.2087C7.82821 15.2087 7.82999 15.2088 7.83178 15.2088C12.318 15.2053 14.7507 13.0469 14.7507 10.1844C14.7507 7.46688 12.3568 6.28031 11.5456 5.95623C11.4025 5.89904 11.324 5.73747 11.3739 5.59C11.5961 4.93433 12.1374 3.25004 12.1374 2.40904C12.1374 1.35099 11.6715 0.585938 10.6593 0.585938C9.20244 0.585938 8.83921 2.67697 8.81332 4.92115C8.81163 5.07097 8.69203 5.19253 8.5442 5.19253H7.10867C6.96079 5.19253 6.84125 5.07097 6.83953 4.92115C6.81362 2.67697 6.45045 0.585938 4.9935 0.585938Z" fill="#727272"/>
<path d="M7.83178 14.2914C4.53554 14.2914 0.907799 12.5037 0.902116 10.1895C0.902108 10.193 0.9021 10.1966 0.9021 10.2002C0.9021 13.0651 3.33874 15.2246 7.83178 15.2246C12.3248 15.2246 14.7615 13.0651 14.7615 10.2002C14.7615 10.1966 14.7615 10.193 14.7615 10.1895C14.7558 12.5037 11.128 14.2914 7.83178 14.2914Z" fill="#BABABA"/>
<path d="M6.00031 9.47928C6.00031 10.2606 5.63587 10.6675 5.18631 10.6675C4.73675 10.6675 4.37231 10.2606 4.37231 9.47928C4.37231 8.69793 4.73675 8.29102 5.18631 8.29102C5.63587 8.29102 6.00031 8.69793 6.00031 9.47928Z" fill="white"/>
<path d="M11.2913 9.47928C11.2913 10.2606 10.9268 10.6675 10.4773 10.6675C10.0277 10.6675 9.66327 10.2606 9.66327 9.47928C9.66327 8.69793 10.0277 8.29102 10.4773 8.29102C10.9268 8.29102 11.2913 8.69793 11.2913 9.47928Z" fill="white"/>
</g>
<defs>
<clipPath id="clip0_228_8274">
<rect width="102.691" height="16" fill="white"/>
</clipPath>
</defs>
</svg>

<svg xmlns="http://www.w3.org/2000/svg" width="103" height="16" fill="none">
  <g clip-path="url(#a)" opacity=".6">
    <path fill="#fff"
      d="M19.802 12.31c-.24 0-.408-.05-.507-.149-.09-.1-.136-.256-.136-.47V4.516c0-.215.05-.372.149-.471.098-.108.263-.161.494-.161h3.026c1.153 0 2.001.243 2.545.73.543.488.815 1.215.815 2.181 0 .958-.272 1.681-.815 2.168-.535.48-1.384.72-2.545.72h-1.173v2.006c0 .215-.05.372-.149.471-.098.099-.267.149-.506.149h-1.198Zm2.829-4.423c.337 0 .597-.091.778-.273.19-.182.284-.454.284-.818 0-.371-.095-.648-.284-.83-.181-.181-.44-.272-.778-.272h-.976v2.193h.976ZM29.105 12.495c-.774 0-1.395-.247-1.865-.743-.461-.504-.691-1.21-.691-2.119 0-.693.156-1.3.469-1.82.321-.521.77-.922 1.346-1.203.585-.289 1.256-.433 2.014-.433.626 0 1.177.07 1.655.21.486.133.93.327 1.334.583v4.955c0 .157-.028.26-.086.31-.058.05-.173.075-.346.075h-1.26a.477.477 0 0 1-.21-.038.373.373 0 0 1-.124-.148l-.16-.372a2.088 2.088 0 0 1-.865.558c-.33.123-.733.185-1.21.185Zm.927-1.685c.321 0 .572-.078.753-.235.182-.157.272-.38.272-.669V7.973a1.381 1.381 0 0 0-.593-.111c-.436 0-.786.153-1.05.458-.255.306-.383.735-.383 1.289 0 .8.334 1.201 1.001 1.201ZM35.086 12.31c-.239 0-.407-.05-.506-.15-.099-.098-.148-.255-.148-.47V6.747c0-.149.024-.248.074-.298.057-.057.173-.086.346-.086h1.272c.099 0 .173.016.222.05.058.024.09.074.1.148l.06.372a2.38 2.38 0 0 1 .903-.546c.379-.14.799-.21 1.26-.21.667 0 1.206.19 1.618.57.412.371.618.925.618 1.66v3.283c0 .215-.05.372-.149.47-.09.1-.255.15-.494.15h-1.198c-.239 0-.412-.05-.519-.15-.099-.098-.148-.255-.148-.47V8.568c0-.248-.054-.425-.16-.533-.108-.107-.276-.16-.507-.16-.247 0-.445.065-.593.197-.14.133-.21.314-.21.546v3.072c0 .215-.05.372-.148.47-.09.1-.256.15-.494.15h-1.199ZM45.271 12.495c-1.153 0-2.042-.268-2.668-.805-.626-.537-.94-1.317-.94-2.342 0-.627.145-1.18.433-1.66.289-.479.704-.85 1.248-1.115.552-.264 1.202-.396 1.952-.396.568 0 1.046.053 1.433.16.395.108.745.273 1.05.496.09.058.135.133.135.223a.544.544 0 0 1-.098.26l-.507.88c-.057.116-.127.174-.21.174-.05 0-.127-.033-.234-.1a2.946 2.946 0 0 0-.63-.31c-.19-.065-.429-.098-.717-.098-.412 0-.745.132-1 .396-.248.264-.371.628-.371 1.09 0 .471.127.835.383 1.09.255.248.605.372 1.05.372.263 0 .502-.037.716-.111.214-.074.433-.178.655-.31.115-.066.198-.099.247-.099.074 0 .14.058.198.174l.556.954a.48.48 0 0 1 .061.198c0 .074-.05.144-.148.21a3.899 3.899 0 0 1-1.136.496c-.404.116-.89.173-1.458.173ZM51.145 12.495c-.774 0-1.396-.247-1.865-.743-.461-.504-.692-1.21-.692-2.119 0-.693.157-1.3.47-1.82.32-.521.77-.922 1.346-1.203.585-.289 1.256-.433 2.014-.433.626 0 1.177.07 1.655.21.486.133.93.327 1.334.583v4.955c0 .157-.029.26-.086.31-.058.05-.173.075-.346.075h-1.26a.478.478 0 0 1-.21-.038.374.374 0 0 1-.124-.148l-.16-.372a2.09 2.09 0 0 1-.865.558c-.33.123-.733.185-1.21.185Zm.927-1.685c.321 0 .572-.078.753-.235.181-.157.272-.38.272-.669V7.973a1.382 1.382 0 0 0-.593-.111c-.436 0-.786.153-1.05.458-.255.306-.383.735-.383 1.289 0 .8.334 1.201 1 1.201ZM63.167 11.839c.057.066.086.14.086.223a.252.252 0 0 1-.074.186.298.298 0 0 1-.198.062h-1.914a1.01 1.01 0 0 1-.26-.025.565.565 0 0 1-.16-.136l-1.68-2.292v1.833c0 .215-.05.372-.148.471-.1.099-.268.149-.507.149h-1.198c-.239 0-.408-.05-.507-.149-.09-.1-.136-.256-.136-.47V4.516c0-.215.05-.372.149-.471.099-.108.263-.161.494-.161h1.198c.239 0 .408.053.507.16.098.1.148.257.148.472v4.15l1.63-2.13a.406.406 0 0 1 .161-.137.69.69 0 0 1 .26-.037h1.914c.082 0 .144.024.185.074.05.041.075.1.075.173a.33.33 0 0 1-.087.223l-2.112 2.429 2.174 2.577ZM67.178 12.495c-.692 0-1.31-.115-1.853-.346a2.877 2.877 0 0 1-1.273-1.041c-.312-.463-.469-1.029-.469-1.698 0-1.049.297-1.85.89-2.403.593-.554 1.445-.83 2.557-.83 1.087 0 1.91.272 2.47.817.569.537.853 1.285.853 2.243 0 .413-.182.62-.544.62H65.93c0 .355.132.627.395.817.272.19.68.285 1.223.285.338 0 .618-.029.84-.087a3.5 3.5 0 0 0 .692-.284.674.674 0 0 1 .198-.063c.074 0 .136.05.185.15l.42.792a.476.476 0 0 1 .062.186c0 .074-.05.144-.148.21a3.49 3.49 0 0 1-1.15.484c-.427.099-.917.148-1.47.148Zm.951-3.865c0-.314-.09-.558-.272-.731-.18-.174-.453-.26-.815-.26-.362 0-.638.09-.828.272-.19.174-.284.413-.284.719h2.199ZM74.587 12.495a8.84 8.84 0 0 1-1.965-.21c-.617-.15-1.115-.356-1.494-.62-.14-.091-.21-.186-.21-.285 0-.066.024-.137.074-.21l.605-.967c.066-.1.132-.149.198-.149a.52.52 0 0 1 .21.087c.305.173.65.314 1.037.421.387.107.77.161 1.15.161.386 0 .67-.058.852-.173.189-.116.284-.302.284-.558a.667.667 0 0 0-.31-.582c-.197-.14-.572-.318-1.123-.533-.832-.314-1.483-.665-1.952-1.053-.461-.397-.692-.933-.692-1.61 0-.818.293-1.442.877-1.872.585-.429 1.363-.644 2.335-.644.675 0 1.252.062 1.73.186a3.39 3.39 0 0 1 1.235.545c.14.108.21.207.21.298a.371.371 0 0 1-.075.198l-.605.966c-.074.1-.14.149-.197.149a.52.52 0 0 1-.21-.087c-.478-.314-1.046-.47-1.705-.47-.354 0-.626.057-.815.173-.19.115-.285.305-.285.57 0 .181.05.33.149.446.099.115.23.219.395.31.173.082.436.19.79.322l.235.086c.61.24 1.087.471 1.433.694.354.215.622.483.803.805.181.314.272.71.272 1.19 0 .735-.276 1.321-.828 1.76-.543.437-1.346.656-2.409.656ZM80.448 12.31a.538.538 0 0 1-.284-.063c-.066-.04-.116-.124-.149-.248l-1.593-5.352a.397.397 0 0 1-.025-.111c0-.116.082-.174.247-.174h1.63c.108 0 .186.021.235.062.05.033.083.091.099.174l.667 2.812.84-2.267a.52.52 0 0 1 .124-.198c.05-.042.132-.062.247-.062h.778c.115 0 .194.02.235.062.05.033.094.099.136.198l.827 2.267.68-2.812a.335.335 0 0 1 .099-.174c.04-.041.115-.062.222-.062h1.643c.165 0 .247.058.247.174a.384.384 0 0 1-.025.111L85.722 12c-.032.124-.082.207-.148.248-.058.042-.148.062-.272.062h-1.21a.446.446 0 0 1-.26-.062.582.582 0 0 1-.148-.248l-.815-2.242-.816 2.242a.453.453 0 0 1-.148.248.444.444 0 0 1-.259.062h-1.198ZM90.484 12.495c-.774 0-1.395-.247-1.865-.743-.461-.504-.692-1.21-.692-2.119 0-.693.156-1.3.47-1.82.32-.521.77-.922 1.346-1.203.585-.289 1.256-.433 2.014-.433.626 0 1.177.07 1.655.21.486.133.93.327 1.334.583v4.955c0 .157-.029.26-.087.31-.058.05-.172.075-.345.075h-1.26a.48.48 0 0 1-.21-.038.37.37 0 0 1-.124-.148l-.16-.372a2.091 2.091 0 0 1-.865.558c-.33.123-.733.185-1.21.185Zm.927-1.685c.32 0 .572-.078.754-.235.18-.157.271-.38.271-.669V7.973a1.385 1.385 0 0 0-.593-.111c-.437 0-.786.153-1.05.458-.255.306-.383.735-.383 1.289 0 .8.334 1.201 1.001 1.201ZM96.453 14.812c-.24 0-.408-.05-.507-.148-.09-.1-.136-.256-.136-.471v-7.1c.37-.264.837-.483 1.396-.656a5.897 5.897 0 0 1 1.754-.26c2.488 0 3.731 1.057 3.731 3.171 0 .959-.264 1.723-.791 2.293-.527.57-1.272.854-2.235.854-.272 0-.536-.033-.791-.099a1.932 1.932 0 0 1-.618-.272v2.069c0 .215-.05.372-.148.47-.099.1-.268.15-.507.15h-1.148Zm2.68-3.99c.355 0 .618-.131.79-.396.182-.272.272-.636.272-1.09 0-.537-.106-.913-.32-1.127-.206-.223-.528-.335-.964-.335-.28 0-.502.037-.667.112v1.97c0 .28.078.495.234.644.157.149.375.223.655.223Z" />
    <path fill="#fff" fill-rule="evenodd"
      d="M7.82 15.968c-2.34-.001-4.225-.565-5.542-1.576-1.333-1.024-2.04-2.477-2.04-4.12 0-1.585.706-2.727 1.504-3.5a6.622 6.622 0 0 1 1.797-1.215 25.119 25.119 0 0 1-.366-1.225c-.162-.605-.322-1.316-.322-1.836 0-.616.134-1.235.495-1.716C3.728.272 4.302 0 4.993 0c.54 0 1 .2 1.358.548.343.33.572.77.73 1.23.276.806.384 1.818.414 2.829h.662c.03-1.01.138-2.023.416-2.83.157-.458.386-.898.729-1.23A1.907 1.907 0 0 1 10.659 0c.691 0 1.266.272 1.647.78.362.481.496 1.1.496 1.716 0 .52-.16 1.23-.322 1.836-.122.453-.257.89-.366 1.225.48.223 1.171.61 1.797 1.216.798.772 1.504 1.914 1.504 3.498 0 1.644-.707 3.097-2.04 4.12-1.317 1.012-3.203 1.576-5.543 1.577h-.011Z"
      clip-rule="evenodd" />
    <path fill="#727272"
      d="M4.994.586c-1.013 0-1.479.765-1.479 1.823 0 .841.542 2.525.764 3.181a.296.296 0 0 1-.172.366C3.296 6.28.902 7.466.902 10.184c0 2.863 2.433 5.021 6.92 5.025h.01c4.486-.004 6.919-2.162 6.919-5.025 0-2.717-2.394-3.904-3.205-4.228a.296.296 0 0 1-.172-.366c.222-.656.763-2.34.763-3.181 0-1.058-.466-1.823-1.478-1.823-1.457 0-1.82 2.091-1.846 4.335a.272.272 0 0 1-.269.272H7.11a.272.272 0 0 1-.27-.272C6.815 2.677 6.45.586 4.994.586Z" />
    <path fill="#BABABA"
      d="M7.832 14.291c-3.296 0-6.924-1.787-6.93-4.101v.01c0 2.865 2.437 5.025 6.93 5.025s6.93-2.16 6.93-5.025v-.01c-.006 2.314-3.634 4.101-6.93 4.101Z" />
    <path fill="#fff"
      d="M6 9.48c0 .78-.364 1.188-.814 1.188-.45 0-.814-.407-.814-1.189 0-.781.365-1.188.814-1.188.45 0 .814.407.814 1.188ZM11.291 9.48c0 .78-.364 1.188-.814 1.188-.45 0-.814-.407-.814-1.189 0-.781.365-1.188.814-1.188.45 0 .814.407.814 1.188Z" />
  </g>
  <defs>
    <clipPath id="a">
      <path fill="#fff" d="M0 0h102.691v16H0z" />
    </clipPath>
  </defs>
</svg>
